packages/core/src/svgs/networks/mono/algorand.svg

<svg width="24" height="24" viewBox="0 0 24 24" fill="none" xmlns="http://www.w3.org/2000/svg">
<path d="M5.49159 22L14.6263 6.19199L15.7262 10.2841L8.96425 22H12.4256L16.8182 14.396L18.8682 22H21.9702L18.9382 10.7041L21.0896 6.66665H17.9382L16.5976 2H13.5756L2.03027 22H5.49159Z" fill="white"/>
</svg>

<svg xmlns="http://www.w3.org/2000/svg" width="24" height="24" fill="none" viewBox="0 0 24 24">
    <path fill="#fff" d="m5.492 22 9.134-15.808 1.1 4.092L8.964 22h3.462l4.392-7.604L18.868 22h3.102l-3.032-11.296 2.152-4.037h-3.152L16.598 2h-3.022L2.03 22z"/>
</svg>
